picto/jetty-right-framed.svg

<svg class="color-immutable" width="30" height="30" viewBox="0 0 30 30" fill="none" xmlns="http://www.w3.org/2000/svg"><path d="M0 0H30V30H0V0Z" fill="#2D327D"/><path d="M25.5 3C26.325 3 27 3.675 27 4.5V25.5C27 26.325 26.325 27 25.5 27H4.5C3.675 27 3 26.325 3 25.5V4.5C3 3.675 3.675 3 4.5 3H25.5ZM25.5 2.625H4.5C3.46613 2.625 2.625 3.46613 2.625 4.5V25.5C2.625 26.5339 3.46613 27.375 4.5 27.375H25.5C26.5339 27.375 27.375 26.5339 27.375 25.5V4.5C27.375 3.46613 26.5339 2.625 25.5 2.625Z" fill="white"/><path d="M6.7497 11.2501C6.95678 11.2501 7.125 11.4182 7.125 11.6251V13.1247C7.125 13.3316 6.95678 13.5007 6.7497 13.5007H6V15.7503H6.7497C6.95678 15.7503 7.125 15.9182 7.125 16.1244V17.6248C7.125 17.8317 6.95678 17.9998 6.7497 17.9998H6V22.575C6.37342 22.5741 6.74595 22.5359 7.11285 22.4599L9.63217 21.9279C9.921 21.8908 10.2109 21.8684 10.5007 21.862C10.7905 21.8685 11.0803 21.8908 11.3692 21.9279L13.8893 22.4599C14.2544 22.5359 14.627 22.574 15.0004 22.575C15.3737 22.5741 15.7462 22.5359 16.1122 22.4599L18.6325 21.9279C18.9196 21.8908 19.2093 21.8684 19.5002 21.862C19.7909 21.8685 20.0808 21.8908 20.3678 21.9279L21.9739 22.2667L24.2239 17.9998H15.1871L14.8119 15.7502H16.1245V13.5006H11.5123L11.137 11.2501H11.6618C11.869 11.2501 12.0371 11.082 12.0371 10.8751C12.0371 10.668 11.869 10.4999 11.6618 10.4999H6V11.2501H6.7497V11.2501ZM11.4751 17.6248V16.1244C11.4751 15.9182 11.6432 15.7503 11.8495 15.7503H13.8104C13.9934 15.7503 14.1495 15.8821 14.1802 16.0631L14.4301 17.5634C14.4329 17.5839 14.4357 17.6042 14.4357 17.6247C14.4357 17.8308 14.2675 17.9998 14.0604 17.9998H11.8495C11.6432 17.9998 11.4751 17.8309 11.4751 17.6248ZM7.79932 17.6248V16.1244C7.79932 15.9182 7.96755 15.7503 8.17463 15.7503H10.4246C10.6317 15.7503 10.7999 15.9182 10.7999 16.1244V17.6248C10.7999 17.8309 10.6317 17.9998 10.4246 17.9998H8.17463C7.96755 17.9998 7.79932 17.8309 7.79932 17.6248ZM7.79932 13.1248V11.6252C7.79932 11.4183 7.96755 11.2502 8.17463 11.2502H10.1347C10.3187 11.2502 10.4747 11.383 10.5053 11.563L10.7552 13.0625C10.759 13.0838 10.7599 13.1042 10.7599 13.1248C10.7599 13.3317 10.5918 13.5007 10.3856 13.5007H8.17463C7.96755 13.5007 7.79932 13.3317 7.79932 13.1248Z" fill="white"/><path d="M9.75025 22.6318C10.0002 22.6002 10.2501 22.5817 10.5009 22.576C10.7517 22.5817 11.0025 22.6002 11.2506 22.6318L13.743 23.1573C14.1573 23.2446 14.5782 23.2874 15.0009 23.2882C15.4236 23.2874 15.8445 23.2447 16.2588 23.1573L18.7503 22.6318C19.0002 22.6002 19.2501 22.5817 19.5009 22.576C19.7518 22.5817 20.0017 22.6002 20.2506 22.6318L22.7431 23.1573C23.1565 23.2446 23.5774 23.2874 24 23.2882V24.0005C23.5291 23.9996 23.0589 23.9522 22.5972 23.8556L20.1336 23.3356C19.9236 23.3106 19.7128 23.2948 19.5009 23.2882C19.2892 23.2948 19.0782 23.3106 18.8674 23.3356L16.4046 23.8556C15.9429 23.9522 15.4729 23.9996 15.001 24.0005C14.5291 23.9996 14.0589 23.9522 13.5972 23.8556L11.1336 23.3356C10.9245 23.3106 10.7127 23.2948 10.5009 23.2882C10.2891 23.2948 10.0782 23.3106 9.86725 23.3356L7.40448 23.8556C6.94188 23.9522 6.47185 23.9996 5.99988 24.0005V23.2882C6.4225 23.2874 6.84438 23.2447 7.2586 23.1573L9.75025 22.6318Z" fill="white"/></svg>

<svg class="color-immutable" width="30" height="30" viewBox="0 0 30 30" fill="none" xmlns="http://www.w3.org/2000/svg"><g clip-path="url(#a)"><path d="M0 0h30v30H0V0Z" fill="#2D327D"/><path d="M25.5 3c.825 0 1.5.675 1.5 1.5v21c0 .825-.675 1.5-1.5 1.5h-21c-.825 0-1.5-.675-1.5-1.5v-21C3 3.675 3.675 3 4.5 3h21Zm0-.375h-21A1.877 1.877 0 0 0 2.625 4.5v21c0 1.034.841 1.875 1.875 1.875h21a1.877 1.877 0 0 0 1.875-1.875v-21A1.877 1.877 0 0 0 25.5 2.625Z" fill="#fff"/><path d="M6.75 11.25c.207 0 .375.168.375.375v1.5a.376.376 0 0 1-.375.376H6v2.25h.75c.207 0 .375.167.375.373v1.5A.375.375 0 0 1 6.75 18H6v4.575c.373 0 .746-.04 1.113-.115l2.52-.532c.288-.037.578-.06.868-.066.29.007.58.029.868.066l2.52.532c.365.076.738.114 1.111.115.374 0 .746-.04 1.112-.115l2.52-.532c.288-.037.577-.06.868-.066.29.007.58.029.868.066l1.606.339L24.224 18h-9.037l-.375-2.25h1.313V13.5h-4.613l-.375-2.25h.525a.375.375 0 0 0 0-.75H6v.75h.75Zm4.725 6.375v-1.5c0-.207.168-.375.375-.375h1.96c.183 0 .34.132.37.313l.25 1.5a.376.376 0 0 1-.37.436h-2.21a.376.376 0 0 1-.375-.374Zm-3.676 0v-1.5c0-.207.169-.375.376-.375h2.25c.207 0 .375.168.375.374v1.5a.376.376 0 0 1-.375.376h-2.25a.376.376 0 0 1-.376-.375Zm0-4.5v-1.5c0-.207.169-.375.376-.375h1.96c.184 0 .34.133.37.313l.25 1.5a.376.376 0 0 1-.37.438h-2.21a.376.376 0 0 1-.376-.376ZM9.75 22.632c.25-.032.5-.05.75-.056.252.006.502.024.75.056l2.493.525a6.151 6.151 0 0 0 2.516 0l2.491-.525c.25-.032.5-.05.75-.056.252.006.502.024.75.056l2.493.525c.414.088.834.13 1.257.131V24c-.47 0-.941-.048-1.403-.144l-2.463-.52a7.26 7.26 0 0 0-.633-.048 7.308 7.308 0 0 0-.634.048l-2.462.52a6.914 6.914 0 0 1-2.808 0l-2.463-.52c-.21-.025-.421-.041-.633-.048a7.313 7.313 0 0 0-.634.048l-2.463.52A6.93 6.93 0 0 1 6 24v-.712c.423 0 .844-.043 1.259-.13l2.491-.526Z" fill="#fff"/></g><defs><clipPath id="a"><path fill="#fff" d="M0 0h30v30H0z"/></clipPath></defs></svg>
